frontend/src/app/components/ExperimentCardList/img/add-on.svg

<svg xmlns="http://www.w3.org/2000/svg" width="74" height="79" viewBox="0 0 74 79">
  <defs>
    <linearGradient id="illustration-add-on-a" x1="0%" y1="0%" y2="100%">
      <stop offset="0%" stop-color="#00C8D7"/>
      <stop offset="100%" stop-color="#0A84FF"/>
    </linearGradient>
    <linearGradient id="illustration-add-on-b" x1="-111.023%" y1="-103.378%" y2="100%">
      <stop offset="0%" stop-color="#00C8D7"/>
      <stop offset="34.651%" stop-color="#06A2EE"/>
      <stop offset="100%" stop-color="#0A84FF"/>
    </linearGradient>
  </defs>
  <g fill="none" fill-rule="evenodd" transform="translate(2 2)">
    <path stroke="url(#illustration-add-on-a)" stroke-width="3" d="M66.3877376,51.6139457 C63.8258322,48.7804013 60.1208336,47 56,47 C48.2680135,47 42,53.2680135 42,61 C42,64.4270323 43.2313575,67.5664657 45.2757723,70 L33.90625,70 C32.095,70 30.625,68.43375 30.625,66.71875 C30.625,63.4375 35,63.310625 35,59.0625 C35,55.2825 31.08,52.5 26.25,52.5 C21.42,52.5 17.5,55.2825 17.5,59.0625 C17.5,63.310625 21.875,63.4375 21.875,66.71875 C21.875,68.43375 20.405,70 18.59375,70 L4.375,70 C1.96,70 0,68.044375 0,65.625 L0,47.03125 C0,45.22 1.570625,43.75 3.28125,43.75 C6.5625,43.75 6.689375,48.125 10.9375,48.125 C14.721875,48.125 17.5,44.205 17.5,39.375 C17.5,34.545 14.721875,30.625 10.9375,30.625 C6.689375,30.625 6.5625,35 3.28125,35 C1.570625,35 0,33.53 0,31.71875 L0,21.875 C0,19.455625 1.96,17.5 4.375,17.5 L18.59375,17.5 C20.405,17.5 21.875,15.93375 21.875,14.21875 C21.875,10.9375 17.5,10.810625 17.5,6.5625 C17.5,2.7825 21.42,0 26.25,0 C31.08,0 35,2.7825 35,6.5625 C35,10.810625 30.625,10.9375 30.625,14.21875 C30.625,15.93375 32.095,17.5 33.90625,17.5 L48.125,17.5 C50.54,17.5 52.5,19.455625 52.5,21.875 L52.5,36.09375 C52.5,37.905 54.070625,39.375 55.78125,39.375 C59.0625,39.375 59.189375,35 63.4375,35 C67.221875,35 70,38.92 70,43.75 C70,47.2030236 68.5801038,50.1909473 66.3877376,51.6139457 Z"/>
    <circle cx="56" cy="61" r="14" stroke="url(#illustration-add-on-b)" stroke-width="3"/>
    <polygon fill="#0988FC" points="54.466 55 54.466 59.441 50 59.441 50 62.567 54.457 62.567 54.457 67.01 57.575 67.01 57.575 62.588 62.043 62.588 62.043 59.538 57.62 59.538 57.62 55"/>
  </g>
</svg>

<svg xmlns="http://www.w3.org/2000/svg" width="74" height="79" viewBox="0 0 74 79"><defs><linearGradient id="a" x1="0%" y1="0%" y2="100%"><stop offset="0%" stop-color="#00C8D7"/><stop offset="100%" stop-color="#0A84FF"/></linearGradient><linearGradient id="b" x1="-111.023%" y1="-103.378%" y2="100%"><stop offset="0%" stop-color="#00C8D7"/><stop offset="34.651%" stop-color="#06A2EE"/><stop offset="100%" stop-color="#0A84FF"/></linearGradient></defs><g fill="none" fill-rule="evenodd" transform="translate(2 2)"><path stroke="url(#a)" stroke-width="3" d="M66.388 51.614A13.964 13.964 0 0 0 56 47c-7.732 0-14 6.268-14 14 0 3.427 1.231 6.566 3.276 9h-11.37c-1.811 0-3.281-1.566-3.281-3.281 0-3.281 4.375-3.408 4.375-7.656 0-3.78-3.92-6.563-8.75-6.563s-8.75 2.782-8.75 6.563c0 4.248 4.375 4.374 4.375 7.656 0 1.715-1.47 3.281-3.281 3.281H4.375A4.374 4.374 0 0 1 0 65.625V47.031c0-1.811 1.57-3.281 3.281-3.281 3.281 0 3.408 4.375 7.656 4.375 3.785 0 6.563-3.92 6.563-8.75s-2.778-8.75-6.563-8.75C6.69 30.625 6.564 35 3.282 35 1.571 35 0 33.53 0 31.719v-9.844c0-2.42 1.96-4.375 4.375-4.375h14.219c1.811 0 3.281-1.566 3.281-3.281 0-3.281-4.375-3.408-4.375-7.656C17.5 2.783 21.42 0 26.25 0S35 2.783 35 6.563c0 4.248-4.375 4.375-4.375 7.656 0 1.715 1.47 3.281 3.281 3.281h14.219a4.374 4.374 0 0 1 4.375 4.375v14.219c0 1.811 1.57 3.281 3.281 3.281 3.282 0 3.408-4.375 7.657-4.375C67.222 35 70 38.92 70 43.75c0 3.453-1.42 6.44-3.612 7.864z"/><circle cx="56" cy="61" r="14" stroke="url(#b)" stroke-width="3"/><path fill="#0988FC" d="M54.466 55v4.441H50v3.126h4.457v4.443h3.118v-4.422h4.468v-3.05H57.62V55z"/></g></svg>
